X: 1
T: Brides a Bonnie Thing, The
M: 6/8
L: 1/8
R: Jig or March
S: Gow \`i 3rd Repository  (1806)
Z: AK/Fiddlers Companion
K: A
eAA ecc|fBB Baf|eAA ecc|eAA ecc|
fdd ecc|fBB Baf|eAA ecc|eAA Aaf:|
e2d (f/g/a)f|-g2B Bcd|e2e (f/g/a)f|ece ae=g|
fdf ece|f2(B Bc)d|e2e (f/g/a)f|e2A A2c/d/|
e2e (f/g/a)f|(=g2B) Bcd|e2e (f/g/a)f|ece ae=g|
fdf ece|f2B Bcd|e2d (f/g/a)f|e2A Aaf||
